X: 31481
T: Paddy Went To Macon
R: jig
M: 6/8
K: Dmajor
d2e|:"D" fdd add|fdd "A" aef|"Em" geb "A" eae|[M:7/8]"G" gee "D"fede|
[M:6/8] fdd add|"Bm" fdd b2a|"G" gfg agf|1 "D" agf d2 e:|2 "Em" bag "D" fed||
|:"A" cAA eAA|"A" cAA edc|"D" dAA fAA|dAA fed|
"A" cAA eAA|cAA "D" f2 g/a/|"G" bag "D" agf|1 "A" c'ae "D"d3:|2 "A" c'ae "D"d2 e||

